svg/fluentui-system-icons/ic_fluent_flip_vertical_32_regular.svg

<svg width="32" height="32" viewBox="0 0 32 32" fill="none" xmlns="http://www.w3.org/2000/svg">
<path d="M27.5402 2.15838C27.8268 2.3423 28.0001 2.65945 28.0001 3V14C28.0001 14.5523 27.5524 15 27.0001 15H3.0001C2.52998 15 2.12334 14.6725 2.0231 14.2132C1.92285 13.7539 2.15608 13.2868 2.58344 13.0909L26.5834 2.09094C26.893 1.94904 27.2535 1.97446 27.5402 2.15838ZM7.58199 13H26.0001V4.55837L7.58199 13ZM28.0001 29C28.0001 29.3406 27.8268 29.6577 27.5402 29.8416C27.2535 30.0255 26.893 30.051 26.5834 29.9091L2.58344 18.9091C2.15608 18.7132 1.92285 18.2461 2.0231 17.7868C2.12334 17.3275 2.52998 17 3.0001 17H27.0001C27.5524 17 28.0001 17.4477 28.0001 18V29Z" fill="#212121"/>
</svg>

<svg xmlns="http://www.w3.org/2000/svg" width="32" height="32"><path d="M27.54 2.158A1 1 0 0 1 28 3v11a1 1 0 0 1-1 1H3a1 1 0 0 1-.417-1.91l24-11a1 1 0 0 1 .957.068ZM7.582 13H26V4.558L7.582 13ZM28 29a1 1 0 0 1-1.417.91l-24-11A1 1 0 0 1 3 17h24a1 1 0 0 1 1 1v11Z"/></svg>
